src/assets/images/logo.svg

<svg width="67" height="73" viewBox="0 0 67 73" fill="none" xmlns="http://www.w3.org/2000/svg">
<path d="M29.1521 63.1714H26.8156L26.5677 60.3392H26.4615C25.9305 62.2509 24.7976 63.7024 23.2753 63.7024C21.6468 63.7024 20.6202 61.9677 20.6202 58.6399V56.2679C20.6202 52.9401 21.6468 51.2408 23.4523 51.2408C24.7622 51.2408 25.7181 52.1613 26.1783 53.6836H26.2845V48.1608C26.2845 46.6031 25.8597 45.9659 24.9038 45.9659C23.9834 45.9659 23.5939 46.6031 23.5939 48.1608V50.0017H20.7264V48.5503C20.7264 45.187 22.2133 43.5231 24.9038 43.5231C27.6298 43.5231 29.1521 45.187 29.1521 48.5503V63.1714ZM24.5852 61.2597C25.5765 61.2597 26.2845 60.0206 26.2845 57.6132V55.8785C26.2845 54.5332 25.6119 53.6836 24.6914 53.6836C23.9126 53.6836 23.4877 54.3208 23.4877 55.8785V59.0293C23.4877 60.587 23.8418 61.2597 24.5852 61.2597ZM33.8695 44.0542H36.383L36.56 47.1696H36.6308C36.737 44.125 38.3655 44.0542 40.0648 44.0542V47.028C37.4805 47.028 36.737 48.1962 36.737 50.2142V63.1714H33.8695V44.0542ZM49.5258 55.9493H52.3934V58.6399C52.3934 62.0031 50.9065 63.7024 48.2159 63.7024C45.49 63.7024 43.9677 62.0031 43.9677 58.6399V48.5503C43.9677 45.187 45.49 43.5231 48.2159 43.5231C50.9065 43.5231 52.3934 45.187 52.3934 48.5503V54.1438H46.8353V59.0293C46.8353 60.587 47.2601 61.2597 48.1805 61.2597C49.1364 61.2597 49.5258 60.587 49.5258 59.0293V55.9493ZM49.5258 48.1608C49.5258 46.6031 49.1364 45.9659 48.2159 45.9659C47.2601 45.9659 46.8353 46.6031 46.8353 48.1608V52.0551H49.5258V48.1608ZM65.4007 44.0542L63.0287 53.4358V53.5066L65.4007 63.1714H62.4977L61.1524 57.0114L60.94 54.5332H60.7984L60.586 57.0114L59.3469 63.1714H56.4439L58.6743 53.4358V53.365L56.4439 44.0542H59.3469L60.5506 49.8955L60.7984 52.3383H60.94L61.1878 49.8955L62.4977 44.0542H65.4007Z" fill="white"/>
<g clip-path="url(#clip0_1_22038)">
<path d="M54.0383 2.76229L54.1068 2.89215L54.2337 2.96421L55.2106 3.5206L54.2189 4.05004L54.09 4.1186L54.0179 4.24653L53.4703 5.2235L52.9507 4.23192L52.8831 4.10207L52.7552 4.03L51.7764 3.47358L52.77 2.94417L52.8999 2.87563L52.971 2.74671L53.5176 1.76972L54.0383 2.76229Z" fill="white" stroke="white"/>
<path d="M43.7622 7.5061L43.8298 7.63594L43.9577 7.70801L46.0898 8.9209L43.9253 10.0769L43.7954 10.1455L43.7243 10.2734L42.526 12.4125L41.3867 10.2414L41.3181 10.1116L41.1912 10.0395L39.0592 8.82465L41.2236 7.67058L41.3525 7.60203L41.4246 7.47409L42.6229 5.33405L43.7622 7.5061Z" fill="white" stroke="white"/>
<path d="M66.003 35.3037C66.003 35.3037 29.9247 33.4245 3.57108 63.1816C3.57108 63.1816 2.86035 54.9322 0.240987 45.6198L24.2278 18.2545C24.2278 18.2545 11.8298 21.4078 0.574556 21.2538C0.574556 21.2538 3.52604 16.3095 6.38221 8.17907C6.38221 8.17907 19.0907 12.5069 31.9356 6.86735L36.8817 14.0997L18.5281 38.6675C18.8181 38.5053 44.1774 24.405 66.003 35.3037Z" fill="url(#paint0_linear_1_22038)"/>
</g>
<defs>
<linearGradient id="paint0_linear_1_22038" x1="2.77256" y1="45.0573" x2="59.5513" y2="45.7538" gradientUnits="userSpaceOnUse">
<stop stop-color="#D8AE6B"/>
<stop offset="1" stop-color="#1AD079"/>
</linearGradient>
<clipPath id="clip0_1_22038">
<rect width="65.6146" height="63.1386" fill="white" transform="translate(0.865234) rotate(0.784325)"/>
</clipPath>
</defs>
</svg>

<svg xmlns="http://www.w3.org/2000/svg" width="67" height="73" fill="none" viewBox="0 0 67 73"><path fill="#fff" d="M29.152 63.171h-2.336l-.248-2.832h-.107c-.53 1.912-1.663 3.363-3.186 3.363-1.628 0-2.655-1.734-2.655-5.062v-2.372c0-3.328 1.027-5.027 2.832-5.027 1.31 0 2.266.92 2.726 2.443h.107V48.16c0-1.558-.425-2.195-1.381-2.195-.92 0-1.31.637-1.31 2.195V50h-2.868v-1.45c0-3.364 1.487-5.028 4.178-5.028 2.726 0 4.248 1.664 4.248 5.027zm-4.567-1.911c.991 0 1.7-1.24 1.7-3.647V55.88c0-1.346-.673-2.195-1.594-2.195-.778 0-1.203.637-1.203 2.195v3.15c0 1.558.354 2.23 1.097 2.23m9.285-17.206h2.513l.177 3.116h.07c.107-3.045 1.735-3.116 3.435-3.116v2.974c-2.584 0-3.328 1.168-3.328 3.186v12.957H33.87zM49.526 55.95h2.867v2.69c0 3.364-1.486 5.063-4.177 5.063-2.726 0-4.248-1.699-4.248-5.062V48.55c0-3.363 1.522-5.027 4.248-5.027 2.69 0 4.177 1.664 4.177 5.027v5.594h-5.558v4.885c0 1.558.425 2.23 1.346 2.23.955 0 1.345-.672 1.345-2.23zm0-7.788c0-1.558-.39-2.195-1.31-2.195-.956 0-1.38.637-1.38 2.195v3.894h2.69zM65.4 44.054l-2.372 9.382v.07l2.372 9.665h-2.903l-1.346-6.16-.212-2.478h-.142l-.212 2.478-1.24 6.16h-2.902l2.23-9.735v-.071l-2.23-9.31h2.903l1.204 5.84.247 2.443h.142l.248-2.443 1.31-5.84z"/><g clip-path="url(#a)"><path fill="#fff" stroke="#fff" d="m54.038 2.762.069.13.127.072.977.557-.992.529-.129.069-.072.128-.548.976-.52-.991-.067-.13-.128-.072-.979-.556.994-.53.13-.068.071-.13.547-.976zM43.762 7.506l.068.13.128.072 2.132 1.213-2.165 1.156-.13.069-.07.127-1.199 2.14-1.14-2.172-.068-.13-.127-.072-2.132-1.214 2.165-1.154.129-.069.072-.128 1.198-2.14z"/><path fill="url(#b)" d="M66.003 35.304s-36.078-1.88-62.432 27.878c0 0-.71-8.25-3.33-17.562l23.987-27.365S11.83 21.408.575 21.254c0 0 2.951-4.945 5.807-13.075 0 0 12.709 4.328 25.554-1.312l4.946 7.233-18.354 24.568c.29-.163 25.65-14.263 47.475-3.364"/></g><defs><linearGradient id="b" x1="2.773" x2="59.551" y1="45.057" y2="45.754" gradientUnits="userSpaceOnUse"><stop stop-color="#d8ae6b"/><stop offset="1" stop-color="#1ad079"/></linearGradient><clipPath id="a"><path fill="#fff" d="m.865 0 65.61.898-.865 63.133L0 63.133z"/></clipPath></defs></svg>
